X: 4
T: The Bohola
R: jig
M: 6/8
L: 1/8
K: Dmaj
f3 d2B|ABA ABd|efe edB|efe ede|f3 d2B|ABA ABd|efe edB|dfe d2e:|f3 afd|fef afd|efe edB|efe ede|f3 afd|fef afd|efe edB|dfe d2e|f3 afd|fef afd|efe edB|ede a2g|f3 d2B|ABA ABd|efe edB|dfe d3|


Tune 414	Setting 414

